X: 24055
T: Lonely Mountain, The
R: jig
M: 6/8
K: Gminor
|:G3 GAB|dcB ABA|~G2G GAB|cdf edB|
G3 GAB|dcB ABA|GBF BEB|1 DCB, A,B,A,:|2 DEF GAB||
|:cGe cG(d|d)cB Bcd|cBA ABc|BAG GAB|
cGe cG(d|d)cB Bcd|1 cBA ABA|G3 GAB:|2 (d6|d6)||

